X: 309
T: Baxian qinghe
%%abc-version 2.0
%%abcx-abcm2ps-target-version 5.9.1 (29 Sep 2008)
%%abc-creator hum2abc beta
%%abcx-conversion-date 2013/10/02 07:52:30
%%abc-edited-by Helmut Schaffrath
%%humdrum-veritas 1724074490
%%humdrum-veritas-data 1489343547
%%continueall 1
%%barnumbers 0
L: 1/8
M: 4/4
K: C
e2e g2<e2A [I:setbarnb 1]| 
e2e gd2A2 | 
c2>E2G3A | 
c> d B AG4 | 
g2e2d2e2 | 
G2>A2 cc2d | 
e2>G2 e d B A | 
G8 |]  



